X: 2
A:Adam de la Halle
T:Diex soit en cheste maison
N: (written out)
M:3/4
L:1/4
Q:1/4=130
K:F Lydian
%
V:1 clef=treble-8 middle=B,
V:2 clef=treble-8 middle=B,
V:3 clef=treble-8 middle=B,
%%MIDI program 1       70 bassoon
%%MIDI program 2       71 clarinet
%%MIDI program 3       72 piccolo
%
[V:1] E  F2   |((3:2:2ED/) ((3:2:2C/_B,A,)|       B,   (CD)|(E G2) | E        D2      | E   ((3:2:2D/CB,)  |  C         (DE) | F2  z ||
[V:2] C (C_B,)|((3:2:2A,G,/)      F,2     |       E,   F,2 |(A,G,2)| A,       B,2     | C          D2      |((3C/B,/A,/) G,2 | F,2 z ||
[V:3] A, F,2  |((3:2:2A,/B,)     (CD)     |((3:2:2E/D) C2  |(C D2) | C ((3:2:2B,/A,G,)| A, ((3:2:2_B,/A,G,)|  F,         B,2 | C2  z ||
w:   Diex soit        en*         ches-*          te*  mai-  son,*   Et       bien**    et         joie**     à          fui-  son
%
[V:1] C         (D        E)   | F ((3:2:2F/EF) | G2 z | C ((3:2:2B,/A,G,)|       A, ((3:2:2B,/A,G,)      | F, G,2 | F,2 z |
[V:2] A, ((3:2:2_B,/A,    G,)  | F,       A,2   | G2 z | A,       B,2     |       C         D2            | C  B,2 | C2  z |
[V:3] E          D ((3:2:2C/B,)| C ((3:2:2C/B,C)| D2 z | E       (DE)     |((3:2:2FE/)      D ((3:2:2C/B,)| C (DE) | F2  z |
w:    No         si-**          res       no-**   eus  Nous      en-*           voie*      à**            ses a-*   mis;
%
[V:1]  E  (ED)  | C ((3:2:2C/B,C)| D2  z | E (DE)          | F       (ED)     |   C        (DE) | F2  z |
[V:2]  A, (A,G,)| F,       A,2   | G,2 z | A, B,2          | C        D2      |((3C/B,/A,/) B,2 | C2  z |
[V:3]  C  (DE)  |(F        E   F)| G2  z | E  D((3:2:2C/B,)| C ((3:2:2B,/A,G,)|   F,        G,2 | F,2 z |
w:  Ch'est as*    a-       mou-*   reus    Et as**          cour-     tois**      bien      a-    pris
%
[V:1] C   D2  | ((3:2:2EF/) G2     | F  ((3:2:2F/EF)   | G2  z | ((3:2:2AG/) ((3:2:2F/ED) |((3:2:2ED/)    (CB,) | C3  ||
[V:2] F   F2  | ((3:2:2ED/) C((3:2:2B,/A,)| G, A,((3:2:2G,/F,)| G,2 z | A,  _B,2   |      A,     G,2 | F,3 ||
[V:3] F, _B,2 | A,   G,2    | C  ((3:2:2C/B,C)  | D2  z | E    F2    |    ((3E/D/C/) DE  | F3  ||
w:   Pour a-   voir  des     pa- rei-**    sis     A    no-         he'-**  li-*  son
%
[V:1] E  F2   |((3:2:2ED/) ((3:2:2C/_B,A,)|       B,   (CD)|(E G2) | E        D2      | E   ((3:2:2D/CB,)  |  C         (DE) | F2  z ||
[V:2] C (C_B,)|((3:2:2A,G,/)      F,2     |       E,   F,2 |(A,G,2)| A,       B,2     | C          D2      |((3C/B,/A,/) G,2 | F,2 z ||
[V:3] A, F,2  |((3:2:2A,/B,)     (CD)     |((3:2:2E/D) C2  |(C D2) | C ((3:2:2B,/A,G,)| A, ((3:2:2_B,/A,G,)|  F,         B,2 | C2  z ||
w:   Diex soit        en*         ches-*          te*  mai-  son,*   Et       bien**    et         joie**     à          fui-  son
%
[V:1] C         (D        E)   | F ((3:2:2F/EF) | G2 z | C ((3:2:2B,/A,G,)|       A, ((3:2:2B,/A,G,)      | F, G,2 | F,2 z |
[V:2] A, ((3:2:2_B,/A,    G,)  | F,       A,2   | G2 z | A,       B,2     |       C         D2            | C  B,2 | C2  z |
[V:3] E          D ((3:2:2C/B,)| C ((3:2:2C/B,C)| D2 z | E       (DE)     |((3:2:2FE/)      D ((3:2:2C/B,)| C (DE) | F2  z |
w:    Nos        si-**          res       est**   teus Qu'il      prie-*         roit*      à**             en-**    vis;
%
[V:1]  E  (ED)  | C ((3:2:2C/B,C)| D2  z | E (DE)          | F       (ED)     |   C        (DE) | F2  z |
[V:2]  A, (A,G,)| F,       A,2   | G,2 z | A, B,2          | C        D2      |((3C/B,/A,/) B,2 | C2  z |
[V:3]  C  (DE)  |(F        E   F)| G2  z | E  D((3:2:2C/B,)| C ((3:2:2B,/A,G,)|   F,        G,2 | F,2 z |
w:   Mais  as*    frans    hon-*   teus  Nous a**            en       son**       lieu      tra-  mis
%
[V:1] C   D2  | ((3:2:2EF/) G2     | F  ((3:2:2F/EF)   | G2  z | ((3:2:2AG/) ((3:2:2F/ED) |((3:2:2ED/)    (CB,) | C3  ||
[V:2] F   F2  | ((3:2:2ED/) C((3:2:2B,/A,)| G, A,((3:2:2G,/F,)| G,2 z | A,  _B,2   |      A,     G,2 | F,3 ||
[V:3] F, _B,2 | A,   G,2    | C  ((3:2:2C/B,C)  | D2  z | E    F2    |    ((3E/D/C/) DE  | F3  ||
w:   Qui som-  mes   de      ses nou-**    ris     Et   si          en-**   fan-*çon
%
[V:1] E  F2   |((3:2:2ED/) ((3:2:2C/_B,A,)|       B,   (CD)|(E G2) | E        D2      | E   ((3:2:2D/CB,)  |  C         (DE) | F2  z ||
[V:2] C (C_B,)|((3:2:2A,G,/)      F,2     |       E,   F,2 |(A,G,2)| A,       B,2     | C          D2      |((3C/B,/A,/) G,2 | F,2 z ||
[V:3] A, F,2  |((3:2:2A,/B,)     (CD)     |((3:2:2E/D) C2  |(C D2) | C ((3:2:2B,/A,G,)| A, ((3:2:2_B,/A,G,)|  F,         B,2 | C2  z ||
w:   Diex soit        en*         ches-*          te*  mai-  son,*   Et       bien**    et         joie**     à          fui-  son
